X: 267
T: Pa puoyi
%%abc-version 2.0
%%abcx-abcm2ps-target-version 5.9.1 (29 Sep 2008)
%%abc-creator hum2abc beta
%%abcx-conversion-date 2013/10/02 07:52:29
%%abc-edited-by Helmut Schaffrath
%%humdrum-veritas 1057187822
%%humdrum-veritas-data 851589924
%%continueall 1
%%barnumbers 0
L: 1/8
M: 6/8
K: G
d e d c c d [I:setbarnb 1]| 
e d BA3 | 
d d g e c d | 
e d BA3 | 
A d d g e d | 
d B AG3 | 
B A G D G B | 
A A ED3 |]  



